polaris-icons/icons/GaugeMajor.svg

<svg
   viewBox="0 0 20 20"
   xmlns="http://www.w3.org/2000/svg">
  <path
     d="M 10 2.6386719 C 4.8141752 2.6386719 0.54990332 6.5846769 0.048828125 11.638672 C -0.0056606505 12.188271 0.44771555 12.638672 1 12.638672 C 1.5522794 12.638672 1.9942901 12.188624 2.0625 11.640625 C 2.5537095 7.6933389 5.9197041 4.6386719 10 4.6386719 C 10.573899 4.6386719 11.134229 4.6976601 11.673828 4.8125 L 12.382812 2.9238281 C 11.619413 2.7372883 10.820899 2.6386719 10 2.6386719 z M 14.210938 2.6503906 C 13.821716 2.6664439 13.460028 2.9092754 13.314453 3.296875 L 10.179688 11.642578 C 10.120088 11.639078 10.0604 11.638672 10 11.638672 C 8.3431517 11.638672 7 12.981774 7 14.638672 C 7 16.29557 8.3431517 17.638672 10 17.638672 C 11.656898 17.638672 13 16.29557 13 14.638672 C 13 13.761573 12.623537 12.972328 12.023438 12.423828 L 15.1875 4 C 15.3818 3.4827905 15.118862 2.9068904 14.601562 2.7128906 C 14.472338 2.6644282 14.340678 2.6450395 14.210938 2.6503906 z M 16.009766 4.6445312 L 15.269531 6.6171875 C 16.70813 7.8771562 17.6893 9.645237 17.9375 11.640625 C 18.0057 12.188624 18.447701 12.638672 19 12.638672 C 19.552299 12.638672 20.005672 12.188271 19.951172 11.638672 C 19.667972 8.7825247 18.183663 6.2811396 16.009766 4.6445312 z M 10 13.638672 C 10.552299 13.638672 11 14.086372 11 14.638672 C 11 15.190971 10.552299 15.638672 10 15.638672 C 9.4477206 15.638672 9 15.190971 9 14.638672 C 9 14.086372 9.4477206 13.638672 10 13.638672 z " fill="#5C5F62" />
</svg>

<svg viewBox="0 0 20 20" xmlns="http://www.w3.org/2000/svg"><path d="M10 2.639c-5.186 0-9.45 3.946-9.951 9-.055.55.399 1 .951 1 .552 0 .994-.45 1.063-.998a8 8 0 0 1 7.937-7.002c.574 0 1.134.059 1.674.173l.709-1.888a10.03 10.03 0 0 0-2.383-.285zm4.21.011a1 1 0 0 0-.896.647l-3.134 8.346a3 3 0 1 0 1.844.781l3.163-8.424a1 1 0 0 0-.976-1.35zm1.8 1.995-.74 1.972a7.984 7.984 0 0 1 2.668 5.024c.068.548.51.998 1.062.998s1.006-.45.951-1a9.986 9.986 0 0 0-3.941-6.994zm-6.01 8.994a1 1 0 1 1 0 2 1 1 0 0 1 0-2z" fill="#5C5F62"/></svg>
